src/icons/arrow-down-b.svg

<svg xmlns="http://www.w3.org/2000/svg" width="512" height="512" viewBox="0 0 512 512">
    <path d="M98.9 178.3l1.8 2.1 136 156.5c4.6 5.3 11.5 8.6 19.2 8.6 7.7 0 14.6-3.4 19.2-8.6L411 180.6l2.3-2.6c1.7-2.5 2.7-5.5 2.7-8.7 0-8.7-7.4-15.8-16.6-15.8H112.6c-9.2 0-16.6 7.1-16.6 15.8 0 3.4 1.1 6.4 2.9 9z"/>
</svg>

<?xml version="1.0" encoding="UTF-8"?>
<svg width="512px" height="512px" viewBox="0 0 512 512" version="1.1" xmlns="http://www.w3.org/2000/svg" xmlns:xlink="http://www.w3.org/1999/xlink">
    <!-- Generator: Sketch 62 (91390) - https://sketch.com -->
    <title>arrow-down-b</title>
    <desc>Created with Sketch.</desc>
    <g id="arrow-down-b" stroke="none" stroke-width="1" fill="none" fill-rule="evenodd">
        <path d="M98.9,178.3 L100.7,180.4 L236.7,336.9 C241.3,342.2 248.2,345.5 255.9,345.5 C263.6,345.5 270.5,342.1 275.1,336.9 L411,180.6 L413.3,178 C415,175.5 416,172.5 416,169.3 C416,160.6 408.6,153.5 399.4,153.5 L112.6,153.5 C103.4,153.5 96,160.6 96,169.3 C96,172.7 97.1,175.7 98.9,178.3 Z" id="Path" fill="#000000" fill-rule="nonzero"></path>
    </g>
</svg>
